images/logos/tech/prometheus-svgrepo-com.svg

<?xml version="1.0" encoding="UTF-8" standalone="no"?>
<!-- Uploaded to: SVG Repo, www.svgrepo.com, Generator: SVG Repo Mixer Tools -->
<svg width="800px" height="800px" viewBox="-0.5 0 257 257" version="1.1" xmlns="http://www.w3.org/2000/svg" xmlns:xlink="http://www.w3.org/1999/xlink" preserveAspectRatio="xMidYMid">
    <g>
        <path d="M128.001129,0.667 C57.3110392,0.667 0,57.9712627 0,128.663612 C0,199.353702 57.3110392,256.662482 128.001129,256.662482 C198.69122,256.662482 256,199.353702 256,128.663612 C256,57.9712627 198.688961,0.667 128.001129,0.667 L128.001129,0.667 Z M128.001129,240.227234 C107.888506,240.227234 91.5820105,226.791712 91.5820105,210.223193 L164.420248,210.223193 C164.420248,226.789453 148.113753,240.227234 128.001129,240.227234 L128.001129,240.227234 Z M188.153777,200.286599 L67.8417054,200.286599 L67.8417054,178.470817 L188.156036,178.470817 L188.156036,200.286599 L188.153777,200.286599 Z M187.72234,167.242172 L68.1850476,167.242172 C67.7874935,166.78363 67.3809041,166.331864 66.9969029,165.866545 C54.6817608,150.913089 51.7814229,143.106572 48.9646617,135.150972 C48.9172262,134.888948 63.8977879,138.211687 74.5210662,140.601529 C74.5210662,140.601529 79.9874353,141.866474 87.9791764,143.32342 C80.3059303,134.328758 75.7498699,122.894559 75.7498699,111.207372 C75.7498699,85.5493202 95.4287983,63.1281719 88.3292951,45.0055775 C95.2390566,45.5680262 102.629949,59.5885851 103.12915,81.5105319 C110.474866,71.3593491 113.549134,52.8211299 113.549134,41.4546964 C113.549134,29.6861912 121.303698,16.015751 129.060521,15.5481732 C122.146242,26.9439714 130.851773,36.7134119 138.590525,60.9484008 C141.493122,70.0514864 141.122674,85.3708727 143.363433,95.0861012 C144.106589,74.9079713 147.576152,45.4663788 160.376942,35.301643 C154.729867,48.1024336 161.212709,64.1197984 165.646793,71.8201505 C172.800508,84.2437164 177.137462,93.6562617 177.137462,111.458102 C177.137462,123.393761 172.730485,134.631441 165.296674,143.416032 C173.749217,141.830333 179.586034,140.400493 179.586034,140.400493 L207.035338,135.044807 C207.037597,135.042548 203.048503,151.446173 187.72234,167.242172 L187.72234,167.242172 Z" fill="#DA4E31">
</path>
    </g>
</svg>

<svg xmlns="http://www.w3.org/2000/svg" width="800" height="800" preserveAspectRatio="xMidYMid" viewBox="-0.5 0 257 257"><path fill="#da4e31" d="M128.001.667C57.311.667 0 57.971 0 128.664c0 70.69 57.311 127.998 128.001 127.998S256 199.354 256 128.664C256 57.97 198.689.667 128.001.667m0 239.56c-20.112 0-36.419-13.435-36.419-30.004h72.838c0 16.566-16.306 30.004-36.419 30.004m60.153-39.94H67.842V178.47h120.314v21.816zm-.432-33.045H68.185c-.398-.458-.804-.91-1.188-1.375-12.315-14.954-15.216-22.76-18.032-30.716-.048-.262 14.933 3.06 25.556 5.45 0 0 5.466 1.265 13.458 2.722-7.673-8.994-12.23-20.428-12.23-32.116 0-25.658 19.68-48.079 12.58-66.201 6.91.562 14.3 14.583 14.8 36.505 7.346-10.152 10.42-28.69 10.42-40.056 0-11.769 7.755-25.44 15.512-25.907-6.915 11.396 1.79 21.165 9.53 45.4 2.902 9.103 2.532 24.423 4.772 34.138.744-20.178 4.213-49.62 17.014-59.784-5.647 12.8.836 28.818 5.27 36.518 7.154 12.424 11.49 21.836 11.49 39.638 0 11.936-4.407 23.173-11.84 31.958 8.452-1.586 14.289-3.016 14.289-3.016l27.45-5.355c.002-.002-3.987 16.401-19.314 32.197"/></svg>
